public/images/icons/filter.svg

<svg width="36" height="40" viewBox="0 0 36 40" fill="none" xmlns="http://www.w3.org/2000/svg">
<path d="M11.25 4.44868C10.6533 4.44868 10.081 4.68274 9.65901 5.09938C9.23705 5.51601 9 6.08109 9 6.6703C9 7.25951 9.23705 7.82458 9.65901 8.24122C10.081 8.65785 10.6533 8.89191 11.25 8.89191C11.8467 8.89191 12.419 8.65785 12.841 8.24122C13.2629 7.82458 13.5 7.25951 13.5 6.6703C13.5 6.08109 13.2629 5.51601 12.841 5.09938C12.419 4.68274 11.8467 4.44868 11.25 4.44868ZM4.8825 4.44868C5.34735 3.14785 6.20941 2.02141 7.34985 1.22464C8.49029 0.427874 9.85295 0 11.25 0C12.6471 0 14.0097 0.427874 15.1502 1.22464C16.2906 2.02141 17.1526 3.14785 17.6175 4.44868H33.75C34.3467 4.44868 34.919 4.68274 35.341 5.09938C35.7629 5.51601 36 6.08109 36 6.6703C36 7.25951 35.7629 7.82458 35.341 8.24122C34.919 8.65785 34.3467 8.89191 33.75 8.89191H17.6175C17.1526 10.1927 16.2906 11.3192 15.1502 12.1159C14.0097 12.9127 12.6471 13.3406 11.25 13.3406C9.85295 13.3406 8.49029 12.9127 7.34985 12.1159C6.20941 11.3192 5.34735 10.1927 4.8825 8.89191H2.25C1.65326 8.89191 1.08097 8.65785 0.65901 8.24122C0.237053 7.82458 0 7.25951 0 6.6703C0 6.08109 0.237053 5.51601 0.65901 5.09938C1.08097 4.68274 1.65326 4.44868 2.25 4.44868H4.8825ZM24.75 17.7784C24.1533 17.7784 23.581 18.0124 23.159 18.4291C22.7371 18.8457 22.5 19.4108 22.5 20C22.5 20.5892 22.7371 21.1543 23.159 21.5709C23.581 21.9876 24.1533 22.2216 24.75 22.2216C25.3467 22.2216 25.919 21.9876 26.341 21.5709C26.7629 21.1543 27 20.5892 27 20C27 19.4108 26.7629 18.8457 26.341 18.4291C25.919 18.0124 25.3467 17.7784 24.75 17.7784ZM18.3825 17.7784C18.8474 16.4776 19.7094 15.3511 20.8498 14.5543C21.9903 13.7576 23.3529 13.3297 24.75 13.3297C26.1471 13.3297 27.5097 13.7576 28.6502 14.5543C29.7906 15.3511 30.6526 16.4776 31.1175 17.7784H33.75C34.3467 17.7784 34.919 18.0124 35.341 18.4291C35.7629 18.8457 36 19.4108 36 20C36 20.5892 35.7629 21.1543 35.341 21.5709C34.919 21.9876 34.3467 22.2216 33.75 22.2216H31.1175C30.6526 23.5224 29.7906 24.6489 28.6502 25.4457C27.5097 26.2424 26.1471 26.6703 24.75 26.6703C23.3529 26.6703 21.9903 26.2424 20.8498 25.4457C19.7094 24.6489 18.8474 23.5224 18.3825 22.2216H2.25C1.65326 22.2216 1.08097 21.9876 0.65901 21.5709C0.237053 21.1543 0 20.5892 0 20C0 19.4108 0.237053 18.8457 0.65901 18.4291C1.08097 18.0124 1.65326 17.7784 2.25 17.7784H18.3825ZM11.25 31.1081C10.6533 31.1081 10.081 31.3421 9.65901 31.7588C9.23705 32.1754 9 32.7405 9 33.3297C9 33.9189 9.23705 34.484 9.65901 34.9006C10.081 35.3173 10.6533 35.5513 11.25 35.5513C11.8467 35.5513 12.419 35.3173 12.841 34.9006C13.2629 34.484 13.5 33.9189 13.5 33.3297C13.5 32.7405 13.2629 32.1754 12.841 31.7588C12.419 31.3421 11.8467 31.1081 11.25 31.1081ZM4.8825 31.1081C5.34735 29.8073 6.20941 28.6808 7.34985 27.884C8.49029 27.0873 9.85295 26.6594 11.25 26.6594C12.6471 26.6594 14.0097 27.0873 15.1502 27.884C16.2906 28.6808 17.1526 29.8073 17.6175 31.1081H33.75C34.3467 31.1081 34.919 31.3421 35.341 31.7588C35.7629 32.1754 36 32.7405 36 33.3297C36 33.9189 35.7629 34.484 35.341 34.9006C34.919 35.3173 34.3467 35.5513 33.75 35.5513H17.6175C17.1526 36.8522 16.2906 37.9786 15.1502 38.7754C14.0097 39.5721 12.6471 40 11.25 40C9.85295 40 8.49029 39.5721 7.34985 38.7754C6.20941 37.9786 5.34735 36.8522 4.8825 35.5513H2.25C1.65326 35.5513 1.08097 35.3173 0.65901 34.9006C0.237053 34.484 0 33.9189 0 33.3297C0 32.7405 0.237053 32.1754 0.65901 31.7588C1.08097 31.3421 1.65326 31.1081 2.25 31.1081H4.8825Z" fill="#292929"/>
</svg>

<svg width="36" height="40" fill="none" xmlns="http://www.w3.org/2000/svg"><path d="M11.25 4.449c-.597 0-1.169.234-1.591.65A2.207 2.207 0 0 0 9 6.67c0 .59.237 1.155.659 1.571.422.417.994.65 1.591.65s1.169-.233 1.591-.65c.422-.416.659-.981.659-1.57 0-.59-.237-1.155-.659-1.572a2.265 2.265 0 0 0-1.591-.65Zm-6.367 0A6.676 6.676 0 0 1 7.35 1.225 6.812 6.812 0 0 1 11.25 0c1.397 0 2.76.428 3.9 1.225a6.677 6.677 0 0 1 2.467 3.224H33.75c.597 0 1.169.234 1.591.65.422.417.659.982.659 1.571 0 .59-.237 1.155-.659 1.571-.422.417-.994.65-1.591.65H17.617a6.677 6.677 0 0 1-2.467 3.225 6.812 6.812 0 0 1-3.9 1.225 6.811 6.811 0 0 1-3.9-1.225 6.676 6.676 0 0 1-2.467-3.224H2.25a2.265 2.265 0 0 1-1.591-.65A2.208 2.208 0 0 1 0 6.67c0-.589.237-1.154.659-1.57.422-.417.994-.651 1.591-.651h2.633Zm19.867 13.33c-.597 0-1.169.233-1.591.65A2.208 2.208 0 0 0 22.5 20c0 .59.237 1.154.659 1.57a2.265 2.265 0 0 0 3.182 0c.422-.416.659-.98.659-1.57 0-.59-.237-1.154-.659-1.57a2.265 2.265 0 0 0-1.591-.652Zm-6.367 0a6.677 6.677 0 0 1 2.467-3.225 6.812 6.812 0 0 1 3.9-1.224c1.397 0 2.76.428 3.9 1.224a6.677 6.677 0 0 1 2.468 3.224h2.632c.597 0 1.169.234 1.591.651.422.417.659.982.659 1.571 0 .59-.237 1.154-.659 1.57-.422.418-.994.652-1.591.652h-2.633a6.677 6.677 0 0 1-2.467 3.224 6.812 6.812 0 0 1-3.9 1.224 6.812 6.812 0 0 1-3.9-1.224 6.677 6.677 0 0 1-2.468-3.224H2.25a2.264 2.264 0 0 1-1.591-.651A2.207 2.207 0 0 1 0 20c0-.59.237-1.154.659-1.57.422-.418.994-.652 1.591-.652h16.133Zm-7.133 13.33c-.597 0-1.169.233-1.591.65A2.207 2.207 0 0 0 9 33.329c0 .59.237 1.155.659 1.572.422.416.994.65 1.591.65s1.169-.234 1.591-.65c.422-.417.659-.982.659-1.571 0-.59-.237-1.155-.659-1.571a2.265 2.265 0 0 0-1.591-.65Zm-6.367 0a6.677 6.677 0 0 1 2.467-3.225 6.812 6.812 0 0 1 3.9-1.225c1.397 0 2.76.428 3.9 1.225a6.677 6.677 0 0 1 2.467 3.224H33.75c.597 0 1.169.234 1.591.65.422.417.659.982.659 1.572 0 .589-.237 1.154-.659 1.57-.422.417-.994.651-1.591.651H17.617a6.677 6.677 0 0 1-2.467 3.224A6.812 6.812 0 0 1 11.25 40a6.812 6.812 0 0 1-3.9-1.225 6.676 6.676 0 0 1-2.467-3.224H2.25a2.264 2.264 0 0 1-1.591-.65A2.207 2.207 0 0 1 0 33.33c0-.59.237-1.155.659-1.571.422-.417.994-.65 1.591-.65h2.633Z" fill="#292929"/></svg>
